X: 4
T: Minuet
C: Michael Dabney
R: minuet
B: Michael Dabney "Twelve Minuets and Twelve Dances" p.2 #2
S: "http://imslp.org/wiki/12_Minuets_and_12_Dances_(Dabney,_Michael)"
Z: 2015 John Chambers <jc:trillian.mit.edu>
M: 3/4
L: 1/8
K: D
% - - - - - - - - - - - - - - - - - - - - - - - - -
% Voice 1 produces mostly 4- or 8-bar staffs.
V: 1
|:\
D>F A2 d2 | {B}A2 GFED | d2 fedc | (3(def) A4 |\
B2 TB2 (3(Bcd) | A2 A2 (3(Bcd) | A2 BAGF | TF2 E2 z2 |
F^GABcd | {f}e2 dcBA | FdcBA^G | {^G2}A6 :|\
|:\
A2 A2 GF | G>AGF E2 | DEFGAB | {B}A2 {A}G2 {G}F2 |
(3(fed) c2B2 | e2 dcBA | (3(dcB) A2 T^G2 | A>BAGFE |\
D2 DEFG | A2 ABcd | (3BAG F2 TE2 | D6 :|
% - - - - - - - - - - - - - - - - - - - - - - - - -
% Voice 2 preserves the staff breaks in the book.
V: 2 clef=bass middle=d
|:\
d4 d2 | "6"c2 "7"A2 d2 | "6"fg "6;4"a2 "3"A2 | d2 f2 d2 |\
g2 b2 g2 | "6"f2 d2 g2 | "6"c2 d2 G2 | "6;4"A2 "3"c2 A2 |\
z2 z2 AB | "6"c2 "#6"B2 A2 | d2 "6;4"e2 "#"E2 | A6 :|
|:\
"6"f4 d2 | e2 c2 A2 | d3 efg | "6"f2 "6"e2 d2 |\
z2 z2 d2 | "6"c2 z2 c2 | "6"d2 "6;4"e2 "#"E2 | A4 z2 |\
d4 d'2 | c'2 a2 "6"f2 | g2 "6;4"a2 "3"A2 | D6 :|
% - - - - - - - - - - - - - - - - - - - - - - - - -

%%sep 1 1 500
%%sep 1 1 500
